brandFactory_export/2.Regular/Data okey_Ok_2Regular.svg

<?xml version="1.0" encoding="UTF-8"?>
<svg width="24px" height="24px" viewBox="0 0 24 24" version="1.1" xmlns="http://www.w3.org/2000/svg" xmlns:xlink="http://www.w3.org/1999/xlink">
    <title>2.Regular/Data okey_Ok_2Regular</title>
    <g id="Symbols" stroke="none" stroke-width="1" fill="none" fill-rule="evenodd">
        <g id="2.Regular/Data-okey_Ok_2Regular" fill="#5CB615" fill-rule="nonzero">
            <path d="M10.302521,12.2386555 C10.5848739,11.9563025 11.0453782,11.9563025 11.3277311,12.2386555 C11.610084,12.5210084 11.610084,12.9781513 11.3277311,13.2605042 L6.9512605,17.6201681 C6.81680672,17.7546218 6.63193277,17.8319328 6.44033613,17.8319328 C6.2487395,17.8319328 6.06386555,17.7546218 5.92941176,17.6201681 L3.96302521,15.6605042 C3.68067227,15.3781513 3.68067227,14.9210084 3.96302521,14.6386555 C4.2487395,14.3563025 4.70588235,14.3563025 4.98823529,14.6386555 L6.44033613,16.087395 L10.302521,12.2386555 L10.302521,12.2386555 Z M20.2453782,20.3966387 C21.1394958,20.1277311 22.205042,19.6537815 22.205042,18.9277311 L22.205042,15.8184874 C21.7647059,16.0840336 21.2504202,16.312605 20.6689076,16.487395 C19.3142857,16.8941176 17.5361345,17.1193277 15.6672269,17.1193277 C15.4084034,17.1193277 15.1596639,17.1058824 14.907563,17.0957983 C14.8907563,17.2 14.8773109,17.3042017 14.8605042,17.4016807 L14.8605042,17.405042 C14.6521008,18.6016807 13.6773109,19.7411765 12.5210084,20.7159664 C13.4756303,20.8773109 14.5378151,20.9680672 15.6537815,20.9680672 C17.3815126,20.9680672 19.0117647,20.7663866 20.2453782,20.3966387 L20.2453782,20.3966387 Z M7.64033613,22.1310924 C9.39495798,21.2571429 13.0991597,19.0487395 13.4319328,17.1563025 C13.7277311,15.4453782 13.7882353,11.8184874 13.7983193,10.2285714 L13.794958,10.2285714 C12.3764706,10.2285714 11.4823529,9.63697479 10.6756303,9.10588235 C9.83529412,8.5512605 9.04537815,8.0302521 7.64369748,8.02689076 L7.64033613,8.02689076 C6.24201681,8.02689076 5.4487395,8.5512605 4.60840336,9.10252101 C3.79159664,9.64369748 2.85378151,10.2319328 1.48571429,10.2386555 C1.49579832,11.8319328 1.55630252,15.4487395 1.85546218,17.1529412 C2.18823529,19.0487395 5.88907563,21.2571429 7.64033613,22.1310924 Z M9.10588235,5.08907563 L9.10588235,6.75966387 C10.1042017,7.00504202 10.8268908,7.47226891 11.4789916,7.90252101 C12.3663866,8.4907563 13.0689076,8.95462185 14.389916,8.74621849 C14.6016807,8.71596639 14.8268908,8.7697479 14.9848739,8.90756303 C15.1462185,9.04537815 15.2504202,9.24033613 15.2537815,9.45210084 C15.2537815,9.50252101 15.2537815,9.81512605 15.2504202,10.2789916 C15.3915966,10.2823529 15.5294118,10.2890756 15.6705882,10.2890756 C17.4016807,10.2890756 19.0285714,10.087395 20.2554622,9.71764706 C21.3848739,9.37815126 21.989916,8.87731092 22.2084034,8.51428571 L22.2084034,5.09915966 C21.7882353,5.34453782 21.2773109,5.55966387 20.6722689,5.74117647 C19.3142857,6.14789916 17.5361345,6.37310924 15.6705882,6.37310924 C13.8016807,6.37310924 12.0268908,6.1512605 10.6655462,5.74453782 C10.0470588,5.55966387 9.52605042,5.34117647 9.10588235,5.08907563 Z M11.0689076,2.04705882 C10.0436975,2.35630252 9.40168067,2.75966387 9.19663866,3.19663866 C9.39159664,3.63697479 10.0436975,4.05042017 11.0823529,4.35966387 C12.3092437,4.72605042 13.9394958,4.92773109 15.6672269,4.92773109 C17.3983193,4.92773109 19.0252101,4.72605042 20.2521008,4.35966387 C21.2739496,4.05378151 21.9327731,3.64705882 22.1344538,3.21008403 C21.8890756,2.65546218 21.005042,2.27563025 20.2420168,2.04369748 C19.0184874,1.67731092 17.3882353,1.47563025 15.6537815,1.47563025 C13.9226891,1.4789916 12.292437,1.68067227 11.0689076,2.04705882 L11.0689076,2.04705882 Z M15.2302521,11.7243697 C15.2067227,12.9210084 15.1596639,14.389916 15.0621849,15.6571429 C15.2638655,15.6638655 15.4655462,15.6739496 15.6705882,15.6739496 C17.405042,15.6739496 19.0319328,15.4722689 20.2554622,15.1058824 C21.3815126,14.7663866 21.989916,14.2655462 22.2084034,13.902521 L22.2084034,10.4336134 C21.7680672,10.6991597 21.2537815,10.9277311 20.6722689,11.102521 C19.3142857,11.5092437 17.5361345,11.7344538 15.6705882,11.7344538 C15.5193277,11.7344538 15.3747899,11.7243697 15.2302521,11.7243697 Z M20.6621849,0.665546218 C22.6487395,1.26386555 23.6571429,2.22184874 23.6571429,3.51596639 L23.6571429,18.9277311 C23.6571429,20.2218487 22.6487395,21.1831933 20.6621849,21.7781513 C19.297479,22.1848739 17.5193277,22.410084 15.6537815,22.410084 C13.9327731,22.410084 12.2991597,22.2117647 10.9815126,21.8588235 C9.56638655,22.8033613 8.24201681,23.4453782 7.94957983,23.5831933 C7.85210084,23.6302521 7.74453782,23.6504202 7.64033613,23.6504202 C7.53613445,23.6504202 7.42857143,23.6268908 7.33109244,23.5798319 C6.68235294,23.2739496 0.971428571,20.5042017 0.426890756,17.394958 C0.0134453782,15.0554622 0.0301570886,9.67058824 0.0301570886,9.44201681 C0.0301570886,9.22016807 0.134453782,9.01176471 0.309243697,8.87394958 C0.484033613,8.73613445 0.715966387,8.68907563 0.931092437,8.74285714 C2.21848739,8.94789916 2.91428571,8.48067227 3.80168067,7.88907563 C4.7394958,7.27058824 5.79831933,6.57142857 7.63361345,6.57142857 L7.64705882,6.57142857 L7.64705882,3.50252101 C7.64705882,3.2907563 7.67731092,3.08571429 7.73445378,2.88739496 C8.02016807,1.89579832 8.99831933,1.14285714 10.6420168,0.648739496 C12,0.242016807 13.7781513,0.0168067227 15.6470588,0.0168067227 C17.5260504,0.0336134454 19.3042017,0.258823529 20.6621849,0.665546218 L20.6621849,0.665546218 Z" id="Data-okey_Ok_2Regular"></path>
        </g>
    </g>
</svg>

<svg width="24" height="24" viewBox="0 0 24 24" xmlns="http://www.w3.org/2000/svg"><path d="M10.303 12.239a.726.726 0 011.025 0 .722.722 0 010 1.022L6.95 17.62a.725.725 0 01-1.022 0l-1.966-1.96a.722.722 0 010-1.022.726.726 0 011.025 0l1.452 1.448 3.863-3.848zm9.942 8.158c.894-.27 1.96-.743 1.96-1.47v-3.109c-.44.266-.955.495-1.536.67-1.355.406-3.133.631-5.002.631-.259 0-.507-.013-.76-.023-.016.104-.03.208-.046.306v.003c-.209 1.197-1.184 2.336-2.34 3.311.955.161 2.017.252 3.133.252 1.728 0 3.358-.202 4.591-.571zM7.64 22.13c1.755-.874 5.46-3.082 5.792-4.975.296-1.71.356-5.338.366-6.927h-.003c-1.419 0-2.313-.592-3.12-1.123-.84-.555-1.63-1.076-3.031-1.08H7.64c-1.398 0-2.191.525-3.032 1.077-.816.54-1.754 1.129-3.122 1.136.01 1.593.07 5.21.37 6.914.332 1.896 4.033 4.104 5.784 4.978zM9.106 5.09v1.67c.998.246 1.72.713 2.373 1.144.887.588 1.59 1.052 2.91.843a.752.752 0 01.596.162.738.738 0 01.269.544c0 .05 0 .363-.004.827.142.003.28.01.42.01 1.732 0 3.359-.202 4.585-.571 1.13-.34 1.735-.84 1.953-1.204V5.1a7.09 7.09 0 01-1.536.642c-1.358.407-3.136.632-5.001.632-1.87 0-3.644-.222-5.005-.628-.619-.185-1.14-.404-1.56-.656zm1.963-3.042c-1.025.31-1.667.713-1.872 1.15.195.44.847.853 1.885 1.163 1.227.366 2.857.568 4.585.568 1.731 0 3.358-.202 4.585-.568 1.022-.306 1.68-.713 1.882-1.15-.245-.555-1.129-.934-1.892-1.166-1.224-.367-2.854-.568-4.588-.568-1.731.003-3.362.205-4.585.571zm4.161 9.677a72.88 72.88 0 01-.168 3.933c.202.007.404.017.609.017 1.734 0 3.36-.202 4.584-.568 1.127-.34 1.735-.84 1.953-1.203v-3.47c-.44.266-.954.495-1.536.67-1.358.406-3.136.631-5.001.631-.152 0-.296-.01-.44-.01zM20.662.666c1.987.598 2.995 1.556 2.995 2.85v15.412c0 1.294-1.008 2.255-2.995 2.85-1.365.407-3.143.632-5.008.632-1.721 0-3.355-.198-4.672-.551a25.345 25.345 0 01-3.032 1.724.717.717 0 01-.618-.003c-.65-.306-6.36-3.076-6.905-6.185C.013 15.055.03 9.671.03 9.442a.725.725 0 01.901-.7c1.287.206 1.983-.261 2.87-.853.938-.618 1.997-1.318 3.833-1.318h.013V3.503c0-.212.03-.417.087-.616.286-.991 1.264-1.744 2.908-2.238C12 .242 13.778.017 15.647.017c1.88.017 3.657.242 5.015.649z" fill="#5CB615" fill-rule="nonzero"/></svg>
